X:617
T:Gordon's Favourite
C:Joe Buchanan's Scottish Tome - Page 181.2
I:181 2
C:Ronnie Cooper
Z:Carl Allison
R:Reel
L:1/8
M:4/4
K:G
D2 | "G"G2>A2 "G"BGBd | "C"edef "G"gdBd | gfge "Em"dBGB | "Am"ABAG "C"E2 "D7"(DE) |
"G"G2 (GA) "G7"BGBd | "C"edef "Gdim"g2 (ag) | "D"fafd "A7"egfe | "D" d2 "A7"f2 ""d2 :|
"C"e2 ce gece | "G"d2 Bd gdBd | "Am"c2 Ac "G"B2 GB | "Am"ABAG "C"E2 "D7"DE |
"G"G2 GA "G7"BGBd | "C"edef "Gdim"gfge | "G"dBGB "D"AcBA | "G"G2 "D7"B2 "G"G2 :|

